svg/color/phrs.svg

<?xml version="1.0" encoding="UTF-8"?>
<svg xmlns="http://www.w3.org/2000/svg" xmlns:xlink="http://www.w3.org/1999/xlink" width="32px" height="32px" viewBox="0 0 32 32" version="1.1">
<g id="surface1">
<path style=" stroke:none;fill-rule:nonzero;fill:rgb(0.784314%,3.529412%,72.549021%);fill-opacity:1;" d="M 23.558594 1.40625 C 23.871094 1.601562 24.179688 1.796875 24.5 2 C 24.8125 2.175781 25.121094 2.351562 25.441406 2.53125 C 28.871094 4.667969 30.96875 8.144531 32 12 C 32.496094 17.527344 32.164062 22.320312 28.6875 26.875 C 25.882812 29.894531 22.304688 31.847656 18.210938 32.117188 C 14.226562 32.226562 10.972656 32.191406 7.5 30 C 7.035156 29.738281 7.035156 29.738281 6.558594 29.46875 C 3.128906 27.332031 1.027344 23.855469 0 20 C -0.507812 14.292969 -0.0664062 9.902344 3.65625 5.375 C 8.683594 -0.0195312 16.746094 -2.324219 23.558594 1.40625 Z M 23.558594 1.40625 "/>
<path style=" stroke:none;fill-rule:nonzero;fill:rgb(95.686275%,95.686275%,98.823529%);fill-opacity:1;" d="M 20 4.5 C 20 5.488281 20 6.480469 20 7.5 C 19.011719 7.664062 18.019531 7.828125 17 8 C 17.328125 8.328125 17.660156 8.660156 18 9 C 18 9.660156 18 10.320312 18 11 C 19.734375 10.753906 19.734375 10.753906 21.5 10.5 C 21.5 11.984375 21.5 13.46875 21.5 15 C 20.34375 15.328125 19.191406 15.660156 18 16 C 18.164062 16.289062 18.328125 16.578125 18.5 16.875 C 19 18 19 18 19 20 C 20.980469 19.753906 20.980469 19.753906 23 19.5 C 23 21.480469 23 23.460938 23 25.5 C 20.945312 26.292969 18.882812 27.058594 16.8125 27.800781 C 16.109375 28.058594 15.40625 28.320312 14.710938 28.589844 C 8.953125 30.8125 8.953125 30.8125 6.65625 30.0625 C 4.785156 28.742188 3.535156 27.277344 3 25 C 4.53125 24.507812 6.0625 24.019531 7.59375 23.53125 C 8.242188 23.324219 8.242188 23.324219 8.902344 23.109375 C 9.324219 22.976562 9.746094 22.84375 10.179688 22.703125 C 10.753906 22.519531 10.753906 22.519531 11.34375 22.332031 C 12.554688 21.984375 13.761719 21.730469 15 21.5 C 13.609375 19.863281 11.859375 19.019531 10 18 C 10 16.515625 10 15.03125 10 13.5 C 10.3125 13.398438 10.625 13.296875 10.949219 13.1875 C 11.359375 13.054688 11.765625 12.921875 12.1875 12.78125 C 12.59375 12.648438 13 12.515625 13.417969 12.375 C 14.503906 12.023438 14.503906 12.023438 15.5 11.5 C 14.179688 10.839844 12.859375 10.179688 11.5 9.5 C 11.5 8.511719 11.5 7.519531 11.5 6.5 C 12.730469 6.164062 13.957031 5.832031 15.1875 5.5 C 15.535156 5.40625 15.886719 5.308594 16.246094 5.210938 C 18.886719 4.5 18.886719 4.5 20 4.5 Z M 20 4.5 "/>
<path style=" stroke:none;fill-rule:nonzero;fill:rgb(98.039216%,98.039216%,99.215686%);fill-opacity:1;" d="M 23 19.5 C 23 21.480469 23 23.460938 23 25.5 C 20.945312 26.292969 18.882812 27.058594 16.8125 27.800781 C 16.109375 28.058594 15.40625 28.320312 14.710938 28.589844 C 8.953125 30.8125 8.953125 30.8125 6.65625 30.0625 C 4.785156 28.742188 3.535156 27.277344 3 25 C 7.898438 23.402344 12.800781 21.871094 17.78125 20.5625 C 18.1875 20.453125 18.59375 20.347656 19.015625 20.238281 C 21.867188 19.5 21.867188 19.5 23 19.5 Z M 23 19.5 "/>
<path style=" stroke:none;fill-rule:nonzero;fill:rgb(95.686275%,95.686275%,98.823529%);fill-opacity:1;" d="M 20 4.5 C 20 5.488281 20 6.480469 20 7.5 C 18.515625 7.828125 17.03125 8.160156 15.5 8.5 C 15.335938 9.160156 15.171875 9.820312 15 10.5 C 12.625 10.0625 12.625 10.0625 11.5 9.5 C 11.5 8.511719 11.5 7.519531 11.5 6.5 C 12.730469 6.164062 13.957031 5.832031 15.1875 5.5 C 15.710938 5.355469 15.710938 5.355469 16.246094 5.210938 C 18.886719 4.5 18.886719 4.5 20 4.5 Z M 20 4.5 "/>
<path style=" stroke:none;fill-rule:nonzero;fill:rgb(57.647061%,58.823532%,88.235295%);fill-opacity:1;" d="M 15.5 16 C 16.71875 16.125 16.71875 16.125 18 16.5 C 19 18 19 18 19 20 C 19.328125 20.164062 19.660156 20.328125 20 20.5 C 18.261719 21.078125 16.820312 21.035156 15 21 C 14.226562 19.453125 14.699219 18.15625 15 16.5 C 15.164062 16.335938 15.328125 16.171875 15.5 16 Z M 15.5 16 "/>
<path style=" stroke:none;fill-rule:nonzero;fill:rgb(61.960787%,62.7451%,89.411765%);fill-opacity:1;" d="M 15.5 8 C 16.738281 8.496094 16.738281 8.496094 18 9 C 18 9.660156 18 10.320312 18 11 C 18.328125 11.164062 18.660156 11.328125 19 11.5 C 17.59375 11.84375 17.59375 11.84375 16 12 C 15.0625 11.28125 15.0625 11.28125 14.5 10.5 C 14.828125 9.675781 15.160156 8.851562 15.5 8 Z M 15.5 8 "/>
<path style=" stroke:none;fill-rule:nonzero;fill:rgb(33.333334%,35.294119%,81.568629%);fill-opacity:1;" d="M 16.5 16 C 17.488281 16.496094 17.488281 16.496094 18.5 17 C 18.8125 18.53125 18.8125 18.53125 19 20 C 19.328125 20.164062 19.660156 20.328125 20 20.5 C 19.011719 20.5 18.019531 20.5 17 20.5 C 16.835938 19.015625 16.671875 17.53125 16.5 16 Z M 16.5 16 "/>
<path style=" stroke:none;fill-rule:nonzero;fill:rgb(79.215688%,79.607844%,94.117647%);fill-opacity:1;" d="M 14 16.5 C 14.328125 16.5 14.660156 16.5 15 16.5 C 15 17.65625 15 18.808594 15 20 C 14.175781 19.835938 13.351562 19.671875 12.5 19.5 C 12.828125 19.335938 13.160156 19.171875 13.5 19 C 13.828125 17.738281 13.828125 17.738281 14 16.5 Z M 14 16.5 "/>
<path style=" stroke:none;fill-rule:nonzero;fill:rgb(37.64706%,39.215687%,82.745099%);fill-opacity:1;" d="M 16 8 C 16.988281 8.496094 16.988281 8.496094 18 9 C 18 9.660156 18 10.320312 18 11 C 18.328125 11.164062 18.660156 11.328125 19 11.5 C 18.175781 11.5 17.351562 11.5 16.5 11.5 C 16.335938 10.34375 16.171875 9.191406 16 8 Z M 16 8 "/>
<path style=" stroke:none;fill-rule:nonzero;fill:rgb(14.509805%,16.862746%,76.47059%);fill-opacity:1;" d="M 18.5 17 C 19.488281 17.496094 19.488281 17.496094 20.5 18 C 20.5 18.496094 20.5 18.988281 20.5 19.5 C 20.996094 19.664062 21.488281 19.828125 22 20 C 21.011719 20 20.019531 20 19 20 C 18.835938 19.011719 18.671875 18.019531 18.5 17 Z M 18.5 17 "/>
</g>
</svg>

<svg xmlns="http://www.w3.org/2000/svg" width="32" height="32" viewBox="0 0 32 32"><path d="M23.559 1.406c.312.196.62.39.941.594.313.176.621.352.941.531C28.871 4.668 30.97 8.145 32 12c.496 5.527.164 10.32-3.312 14.875-2.805 3.02-6.383 4.973-10.477 5.242-3.984.11-7.238.074-10.711-2.117l-.941-.531C3.129 27.332 1.027 23.855 0 20-.508 14.293-.066 9.902 3.656 5.375c5.028-5.395 13.09-7.7 19.903-3.969m0 0" style="stroke:none;fill-rule:nonzero;fill:#0209b9;fill-opacity:1"/><path d="M20 4.5v3c-.988.164-1.98.328-3 .5l1 1v2c1.734-.246 1.734-.246 3.5-.5V15c-1.156.328-2.309.66-3.5 1 .164.29.328.578.5.875C19 18 19 18 19 20c1.98-.246 1.98-.246 4-.5v6a274 274 0 0 1-6.187 2.3q-1.058.387-2.102.79c-5.758 2.223-5.758 2.223-8.055 1.473C4.786 28.743 3.536 27.277 3 25q2.297-.737 4.594-1.469c.648-.207.648-.207 1.308-.422.422-.132.844-.265 1.278-.406l1.164-.371c1.21-.348 2.418-.602 3.656-.832-1.39-1.637-3.14-2.48-5-3.5v-4.5c.313-.102.625-.203.95-.312.41-.133.816-.266 1.238-.407.406-.133.812-.265 1.23-.406 1.086-.352 1.086-.352 2.082-.875l-4-2v-3q1.843-.503 3.688-1 .52-.141 1.058-.29c2.64-.71 2.64-.71 3.754-.71m0 0" style="stroke:none;fill-rule:nonzero;fill:#f4f4fc;fill-opacity:1"/><path d="M23 19.5v6a274 274 0 0 1-6.187 2.3q-1.058.387-2.102.79c-5.758 2.223-5.758 2.223-8.055 1.473C4.786 28.743 3.536 27.277 3 25c4.898-1.598 9.8-3.129 14.781-4.437.407-.11.813-.215 1.235-.325C21.867 19.5 21.867 19.5 23 19.5m0 0" style="stroke:none;fill-rule:nonzero;fill:#fafafd;fill-opacity:1"/><path d="M20 4.5v3c-1.484.328-2.969.66-4.5 1-.164.66-.328 1.32-.5 2-2.375-.437-2.375-.437-3.5-1v-3q1.843-.503 3.688-1c.523-.145.523-.145 1.058-.29 2.64-.71 2.64-.71 3.754-.71m0 0" style="stroke:none;fill-rule:nonzero;fill:#f4f4fc;fill-opacity:1"/><path d="M15.5 16c1.219.125 1.219.125 2.5.5 1 1.5 1 1.5 1 3.5.328.164.66.328 1 .5-1.738.578-3.18.535-5 .5-.773-1.547-.3-2.844 0-4.5zm0 0" style="stroke:none;fill-rule:nonzero;fill:#9396e1;fill-opacity:1"/><path d="M15.5 8 18 9v2c.328.164.66.328 1 .5-1.406.344-1.406.344-3 .5-.937-.719-.937-.719-1.5-1.5.328-.824.66-1.648 1-2.5m0 0" style="stroke:none;fill-rule:nonzero;fill:#9ea0e4;fill-opacity:1"/><path d="M16.5 16c.988.496.988.496 2 1 .313 1.531.313 1.531.5 3 .328.164.66.328 1 .5h-3c-.164-1.484-.328-2.969-.5-4.5m0 0" style="stroke:none;fill-rule:nonzero;fill:#555ad0;fill-opacity:1"/><path d="M14 16.5h1V20l-2.5-.5c.328-.164.66-.328 1-.5.328-1.262.328-1.262.5-2.5m0 0" style="stroke:none;fill-rule:nonzero;fill:#cacbf0;fill-opacity:1"/><path d="M16 8c.988.496.988.496 2 1v2c.328.164.66.328 1 .5h-2.5A1403 1403 0 0 0 16 8m0 0" style="stroke:none;fill-rule:nonzero;fill:#6064d3;fill-opacity:1"/><path d="M18.5 17c.988.496.988.496 2 1v1.5c.496.164.988.328 1.5.5h-3c-.164-.988-.328-1.98-.5-3m0 0" style="stroke:none;fill-rule:nonzero;fill:#252bc3;fill-opacity:1"/></svg>
